icons/split-units-24.svg

<svg xmlns="http://www.w3.org/2000/svg" viewBox="0 0 24 24"><path d="M24 4v17H14v-1h9V5h-9V4zM1 21h10v-1H2V5h9V4H1zm11 3h1v-2h-1zm0-3h1v-2h-1zm0-3h1v-2h-1zm0-3h1v-2h-1zm0-3h1v-2h-1zm0-3h1V7h-1zm0-3h1V4h-1zm0-3h1V1h-1z"/><path fill="none" d="M0 0h24v24H0z"/></svg>

<svg id="icons" xmlns="http://www.w3.org/2000/svg" viewBox="0 0 24 24"><defs><style>.cls-1{fill:none;}</style></defs><path d="M24,4V21H14V20h9V5H14V4ZM1,21H11V20H2V5h9V4H1Zm11,3h1V22H12Zm0-3h1V19H12Zm0-3h1V16H12Zm0-3h1V13H12Zm0-3h1V10H12Zm0-3h1V7H12Zm0-3h1V4H12Zm0-3h1V1H12Z"/><rect class="cls-1" width="24" height="24"/></svg>
